modules/feathericon/icons/git.svg

<?xml version="1.0" encoding="UTF-8"?>
<svg width="24px" height="24px" viewBox="0 0 24 24" version="1.1" xmlns="http://www.w3.org/2000/svg" xmlns:xlink="http://www.w3.org/1999/xlink">
    <!-- Generator: sketchtool 52.2 (67145) - http://www.bohemiancoding.com/sketch -->
    <title>git</title>
    <desc>Created with sketchtool.</desc>
    <g id="brand" stroke="none" stroke-width="1" fill="none" fill-rule="evenodd">
        <g id="git" fill="#000000">
            <path d="M21.6225861,11.1091377 L12.8904814,2.37725069 C12.3876981,1.87424977 11.5721445,1.87424977 11.0689259,2.37725069 L9.255859,4.19075292 L11.5558204,6.49093194 C12.0903813,6.31027822 12.703298,6.4315121 13.1294667,6.85746312 C13.5578119,7.28624365 13.6779575,7.90438412 13.492733,8.44090392 L15.7097678,10.657721 C16.2462876,10.4727142 16.8648634,10.5922069 17.2932086,11.0214227 C17.8917601,11.6197566 17.8917601,12.5898453 17.2932086,13.1886145 C16.6942218,13.7876013 15.7243507,13.7876013 15.1251462,13.1886145 C14.6750355,12.7380684 14.5635961,12.0763969 14.7919163,11.5218118 L12.7241929,9.45430603 L12.7241929,14.8950304 C12.8700218,14.9672919 13.0077975,15.0634954 13.1294667,15.1847293 C13.7280182,15.7832808 13.7280182,16.7531519 13.1294667,17.352574 C12.5309152,17.9509079 11.5603911,17.9509079 10.9620573,17.352574 C10.3635058,16.7531519 10.3635058,15.7832808 10.9620573,15.1847293 C11.1100627,15.0369415 11.2813573,14.9250668 11.4641876,14.8501934 L11.4641876,9.35919076 C11.2813573,9.28453506 11.110498,9.17353096 10.9620573,9.02487254 C10.5086817,8.57171463 10.3996365,7.90612536 10.6323098,7.34936363 L8.36477905,5.08161522 L2.37708745,11.0686539 C1.87430418,11.5720901 1.87430418,12.3876437 2.37708745,12.8906446 L11.1096274,21.6225317 C11.6124107,22.1253149 12.4277467,22.1253149 12.9311829,21.6225317 L21.6225861,12.9311285 C22.1258046,12.4281276 22.1258046,11.6121386 21.6225861,11.1091377" id="Shape"></path>
        </g>
    </g>
</svg>

<svg width="24" height="24" viewBox="0 0 24 24" xmlns="http://www.w3.org/2000/svg"><path d="M21.623 11.11L12.89 2.376a1.288 1.288 0 0 0-1.821 0L9.256 4.191l2.3 2.3a1.53 1.53 0 0 1 1.937 1.95l2.217 2.217a1.532 1.532 0 1 1-.918.864l-2.068-2.068v5.441a1.533 1.533 0 1 1-1.26-.045V9.36a1.532 1.532 0 0 1-.832-2.01L8.365 5.081l-5.988 5.987a1.289 1.289 0 0 0 0 1.822l8.733 8.732a1.288 1.288 0 0 0 1.821 0l8.692-8.692a1.288 1.288 0 0 0 0-1.822" fill="#000" fill-rule="evenodd"/></svg>
